!!!COM: Mozart, Wolfgang Amadeus
!!!CDT: 1756/01/27/-1791/12/05/
!!!CNT: German
!!!OTL: Piano Sonata No. 4 in E-flat major
!!!SCT1: K<sup>1</sup> 282
!!!SCT2: K<sup>6</sup> 189g
!!!OMV: Mvmt. 2
!!!OMD: Menuetto I & II
!!!ODT: 1774///
**kern	**kern	**dynam
*thru	*thru	*thru
*staff2	*staff1	*staff1/2
*>A	*>A	*>A
*clefF4	*clefG2	*clefG2
*k[b-e-]	*k[b-e-]	*k[b-e-]
*B-:	*B-:	*B-:
*M3/4	*M3/4	*M3/4
*MM120	*MM120	*MM120
!! Menuetto I
4r	(8.dd\L	p
.	16ee-\Jk)	.
=1	=1	=1
4r	(8cc\L	.
.	8b-\J)	.
*clefG2	*	*
4d'/ 4f'/	4b-'\	.
4d'/ 4f'/	4b-'\	.
=2	=2	=2
4e-/ 4f/	4a/	.
4r	4r	.
4r	(8.ee-\L	.
.	16ff\Jk)	.
=3	=3	=3
4r	(8dd\L	.
.	8cc\J)	.
4e-'/ 4f'/	4cc'\	.
4e-'/ 4f'/	4cc'\	.
=4	=4	=4
*^	*	*
2r	4d/ 4f/	4b-\	.
.	4r	4r	.
*v	*v	*	*
*clefF4	*	*
*^	*	*
(8.B-/L	4r	(8.dd\L	f
16c/Jk)	.	16ee-\Jk)	.
=5	=5	=5	=5
(8d/L	[2.F\	(8ff\L	.
(8e-/	.	8gg\	.
8c/	.	8ee-\	.
8A/	.	8cc\	.
8B-/	.	8dd\	.
8c/J)	.	8ee-\J)	.
=6	=6	=6	=6
(8d/L	[2.F\)]	(8ff\L	.
(8e-/	.	8gg\	.
8c/	.	8ee-\	.
8A/	.	8cc\	.
8B-/	.	8dd\	.
8c/J)	.	8ee-\J)	.
=7	=7	=7	=7
4d/	4F\)]	(8ff\L	.
.	.	8bb-\	p
2r	4r	8aa\	.
.	.	8gg\	.
.	4r	8ff\	.
.	.	8een\J	.
*v	*v	*	*
=8	=8	=8
2.r	8dd\L	.
.	8cc\	.
.	8bn\	.
.	8b-\	.
.	8a\	.
.	8g\J)	.
=9	=9	=9
4r	(8.cc\L	f
.	16dd\Jk)	.
4C\ 4A\	4c/ 4f/	.
4C\ 4G\	4B-/ 4en/	.
=10	=10	=10
4F\	4A/ 4f/	.
4FF/	4r	.
4r	8.b-\ (8.dd\L	p
.	16a\ 16cc\Jk)	.
=11	=11	=11
4r	4a\ 4cc\	.
4f\	4r	.
4r	8.b-\ (8.een\L	.
.	16a\ 16ff\Jk)	.
=12	=12	=12
4r	4a\ 4ff\	.
4F\	4r	.
